src/icons/SVG/24px/Service_Delivery_Delivery--Locker_24px.svg

<svg width="24" height="24" viewBox="0 0 24 24" fill="none" xmlns="http://www.w3.org/2000/svg">
  <g id="Square"> </g>
  <g id="Icon">
<path id="Union" fill-rule="evenodd" clip-rule="evenodd" d="M4 4V6H8V4H4ZM4 7H8V10H4V7ZM4 11H8V14H4V11ZM4 15H8V20H4V15ZM9 15V20H15V15H9ZM16 15V20H20V15H16ZM16 14V11H20V14H16ZM16 10H20V7H16V10ZM16 6H20V4H16V6ZM15 4V14H9V4H15ZM3 2C2.44772 2 2 2.44772 2 3V21C2 21.5523 2.44772 22 3 22H21C21.5523 22 22 21.5523 22 21V3C22 2.44772 21.5523 2 21 2H3ZM11 8H13V10H11V8ZM10 8C10 7.44772 10.4477 7 11 7H13C13.5523 7 14 7.44772 14 8V10V11C14 11.5523 13.5523 12 13 12H11C10.4477 12 10 11.5523 10 11V10V8Z" fill="black"/>
</g>
</svg>

<svg xmlns="http://www.w3.org/2000/svg" viewBox="0 0 24 24">
  <g id="Square"> </g>
  <path fill-rule="evenodd" d="M4 4v2h4V4H4zm0 3h4v3H4V7zm0 4h4v3H4v-3zm0 4h4v5H4v-5zm5 0v5h6v-5H9zm7 0v5h4v-5h-4zm0-1v-3h4v3h-4zm0-4h4V7h-4v3zm0-4h4V4h-4v2zm-1-2v10H9V4h6zM3 2a1 1 0 00-1 1v18a1 1 0 001 1h18a1 1 0 001-1V3a1 1 0 00-1-1H3zm8 6h2v2h-2V8zm-1 0a1 1 0 011-1h2a1 1 0 011 1v3a1 1 0 01-1 1h-2a1 1 0 01-1-1V8z"/>
</svg>
